!!!COM: Chagla, Ahmed Ghulamali
!!!CDT: 1902-1953
!!!OTL: National Anthem, Pakistan
!!!ENC: Davis, Matthew J.
!!Vocal Line Only
**kern
*clefG2
*k[b-e-]
*X:
*M4/4
=1-
4B-
8.d
16e-
4f
8.g
16e-
=2
2.f
4r
=3
8.b-
16b-
8.f
16f
4g
8.e-
16d
=4
16e-q
16dq
2.c
4r
=5
8d
8d
8e-
8c
8d
8f
8g
8a
=6
4b-
8a
8g
8f
8e-
4d
=7
8.f
16f
8.e-
16d
4e-
8.d
16c
=8
2.B-
4r
==9
*k[b-e-a-d-g-]
4B-
8.c
16e-
8.c
16An
=10
2.B-
4r
=11
8.c
16c
8.d-
16e-
8.f
16f
8.gn
16an
=12
2.b-
4r
=13
4e-
4f
8.an
16an
4b-
=14
8cc
8dd-
8cc
8b-
8cc
8an
4b-
=15
4f
8.e-
16dn
8.e-
16e-
8.d-
16c
=16
2.B-
4r
==17
*k[b-e-]
8.B-
16B-
8.d
16e-
8.f
16f
8.g
16e-
=18
2.f
4r
=19
8.b-
16b-
8.f
16f
8.g
16g
8.e-
16d
=20
2.c
4r
=21
8d
8d
8e-
8c
8d
8f
8g
8a
=22
4b-
8a
8g
8f
8e-
4d
=23
8.f
16f
8.e-
16d
4e-
8.d
16c
=24
2.B-
4r
==|!
*-
